X: 36504
T: Sergeant Cahill
R: slide
M: 12/8
K: Gmajor
|:D2E ~G2A|B2d dBG|~B3 ABA|G2A B/A/GE|
D2E ~G2A|B2d dBG|~B3 ABA|1 ~G3 GFE:|2 ~G3 GBd||
|:~g3 ~e2d|~g3 ~e2d|~B3 ABA|G2A B/A/GE|
D2E ~G2A|B2d dBG|~B3 ABA|1 ~G3 GBd:|2 ~G3 GFE||

